!!!!SEGMENT: pl-stab--3a--001-004_dankowski-adalbert--vespere-pastorales-laudate-pueri.krn
!!!cenid: 18xx:3486
!!!COM: Dankowski, Adalbert
!!!COM-rismID: pe30000793
!!!CDT: ~1760-~1836
!!!CNT: Polish
!!!OPR: Vespere Pastorales
!!!OTL: Laudate pueri
!!!OMV: 004
!!!PDT: 1804
!!!AGN: Sacred; Vespers
!!!SMS-siglum: PL-STAb
!!!SMS-shelfmark: 3a
!!!SMS-shelfwork: 001-004 M
!!!SMS-variant:
!!!SMS-altvar:
!!!NIFC-rismSourceID: 301050554
!!!NIFC-islandoraID: pl-stab:928
!!!URL-pdf-islandora: https://repozytorium.nifc.pl/islandora/object/pl-stab%3A928/datastream/PDF/view
!!!URL-scan: https://polish.musicsources.pl/pl/lokalizacje/galeria/rekopisy/4500 @EN{Scan on Polish Music Sources Website} @PL{Skany w portalu Dziedzictwo Muzyki Polskiej w otwartym dostępie}
!!!ONB-nifc: UWAGA: części Nieszporów: 1. Dixit Dominus, 2. Confitebor, 3. Beatus vir, 4. Laudate pueri, 5. Magnificat, 6. Fecit potentiam, 7. Gloria
!!!AIN: 1 alto 1 bass 2 cor 1 organ 1 soprn 1 tenor 2 violn
!!!OMD:
!!!OMD-mod: Allegro
!!!key: C
**kern	**fba	**dynam	**kern	**dynam	**kern	**dynam	**kern	**text	**kern	**text	**kern	**text	**kern	**text	**kern	**kern
*	*	*	*group3	*	*group3	*	*group2	*	*group2	*	*group2	*	*group2	*	*group1	*group1
*part9	*part9	*part9	*part8	*part8	*part7	*part7	*part6	*part6	*part5	*part5	*part4	*part4	*part3	*part3	*part2	*part1
*staff9	*	*	*staff8	*	*staff7	*	*staff6	*staff6	*staff5	*staff5	*staff4	*staff4	*staff3	*staff3	*staff2	*staff1
*IGcont	*	*	*	*	*	*	*IGcoro	*	*IGcoro	*	*IGcoro	*	*IGcoro	*	*	*
*ICklav	*	*	*ICstr	*	*ICstr	*	*ICvox	*	*ICvox	*	*ICvox	*	*ICvox	*	*ICbrass	*ICbrass
*Iorgan	*	*	*Ivioln	*	*Ivioln	*	*Ibass	*	*Itenor	*	*Ialto	*	*Isoprn	*	*Icor	*Icor
*I"Organo	*	*	*I"Violino Secundo	*	*I"Violino Primo	*	*I"Basso	*	*I"Tenore	*	*I"Alto	*	*I"Canto	*	*I"Cornu Secondo	*I"Cornu Primo
*	*	*	*mI"Violino II	*	*mI"Violino I	*	*mI"Basso	*	*mI"Tenore	*	*	*	*mI"Soprano	*	*mI"Corno II in D	*mI"Corno I in D
*I'org	*	*	*I'vl 2	*	*I'vl 1	*	*I'B	*	*I'T	*	*I'A	*	*I'S	*	*I'cor 2 in D	*I'cor 1 in D
*clefF4	*	*	*clefG2	*	*clefG2	*	*clefF4	*	*clefC4	*	*clefC3	*	*clefC1	*	*clefG2	*clefG2
*	*	*	*	*	*	*	*	*	*mclefGv2	*	*mclefG2	*	*mclefG2	*	*	*
*	*	*	*	*	*	*	*	*	*	*	*	*	*	*	*Trd8c12	*Trd8c12
*k[]	*	*	*k[]	*	*k[]	*	*k[]	*	*k[]	*	*k[]	*	*k[]	*	*k[]	*k[]
*C:	*	*	*C:	*	*C:	*	*C:	*	*C:	*	*C:	*	*C:	*	*C:	*C:
*M2/4	*	*	*M2/4	*	*M2/4	*	*M2/4	*	*M2/4	*	*M2/4	*	*M2/4	*	*M2/4	*M2/4
=1	=1	=1	=1	=1	=1	=1	=1	=1	=1	=1	=1	=1	=1	=1	=1	=1
!	!	!	!	!	!	!	!LO:MO:mod=!LO&colon;TX&colon;a&colon;i&colon;t=Solo	!	!	!	!	!	!	!	!	!
!LO:TX:a:t=allo Solo:mod=	!	!	!	!LO:MO:mod=!LO&colon;DY&colon;ed=brack	!	!	!LO:TX:a:t=Solo	!	!LO:TX:b:t=Pueri:rj:mod=	!	!	!	!LO:TX:b:t=L:rj:mod=	!	!LO:TX:b:t=Laudate:rj:mod=	!LO:TX:a:t=Ex C.:rj:mod=
!	!	!	!	!null	!LO:TX:a:t=allo:rj:mod=	!	!LO:TX:a:t=allo:rj:mod=	!	!LO:TX:a:t=allo:rj:mod=	!	!LO:TX:a:t=allo:mod=	!	!LO:TX:a:t=allo:rj:mod=	!	!LO:TX:a:t=allo:rj:mod=	!LO:TX:a:t=allo:mod=
!	!	!LO:MO:null:mod=p	!	!LO:MO:null:mod=p	!	!LO:MO:null:mod=p	!	!	!	!	!	!	!	!	!LO:TX:a:t=Ex C&colon;:mod=	!
8C/L	.	.	8e/L	.	8g/L	.	4C/	Lau-	0r	.	0r	.	0r	.	0r	0r
8C/	.	.	8e/	.	8g/	.	.	.	.	.	.	.	.	.	.	.
!	!	!	!	!	!	!LO:DY:a:t=p.:mod= 	!	!	!	!	!	!	!	!	!	!
8C/	.	.	8e/	.	8g/	p.	4E\	.	.	.	.	.	.	.	.	.
8C/J	.	.	8e/J	.	8g/J	.	.	.	.	.	.	.	.	.	.	.
=2	=2	=2	=2	=2	=2	=2	=2	=2	=2	=2	=2	=2	=2	=2	=2	=2
*tremolo	*	*	*tremolo	*	*tremolo	*	*	*	*	*	*	*	*	*	*	*
8C/L	.	.	8e/L	.	8g/L	.	4G\	-da-	.	.	.	.	.	.	.	.
8C/	.	.	8e/	.	8g/	.	.	.	.	.	.	.	.	.	.	.
8C/	.	.	8e/	.	8g/	.	4c\	-te	.	.	.	.	.	.	.	.
8C/J	.	.	8e/J	.	8g/J	.	.	.	.	.	.	.	.	.	.	.
=3	=3	=3	=3	=3	=3	=3	=3	=3	=3	=3	=3	=3	=3	=3	=3	=3
!	!	!LO:DY:a:t=p.:rj:mod= 	!	!	!	!	!	!	!	!	!	!	!	!	!	!
8C/L	.	p	8e/L	.	8g/L	.	16c\LL	pu-	.	.	.	.	.	.	.	.
.	.	.	.	.	.	.	16B\JJ	.	.	.	.	.	.	.	.	.
8C/	.	.	8e/	.	8g/	.	16A\LL	-e-	.	.	.	.	.	.	.	.
.	.	.	.	.	.	.	16G\JJ	.	.	.	.	.	.	.	.	.
8C/	.	.	8e/	.	8g/	.	8c\	-ri	.	.	.	.	.	.	.	.
8C/J	.	.	8e/J	.	8g/J	.	16d\LL	Do-	.	.	.	.	.	.	.	.
.	.	.	.	.	.	.	16e\JJ	.	.	.	.	.	.	.	.	.
=4	=4	=4	=4	=4	=4	=4	=4	=4	=4	=4	=4	=4	=4	=4	=4	=4
8C/L	.	.	8e/L	.	8g/L	.	16c\LL	.	.	.	.	.	.	.	.	.
.	.	.	.	.	.	.	16B\JJ	.	.	.	.	.	.	.	.	.
8C/	.	.	8e/	.	8g/	.	16A\LL	-mi-	.	.	.	.	.	.	.	.
.	.	.	.	.	.	.	16G\JJ	.	.	.	.	.	.	.	.	.
8C/	.	.	8e/	.	8g/	.	8c\	-num	.	.	.	.	.	.	.	.
8C/J	.	.	8e/J	.	8g/J	.	16d\LL	lau-	.	.	.	.	.	.	.	.
.	.	.	.	.	.	.	16e\JJ	.	.	.	.	.	.	.	.	.
=5	=5	=5	=5	=5	=5	=5	=5	=5	=5	=5	=5	=5	=5	=5	=5	=5
8C/L	.	.	8e/L	.	8g/L	.	4c\	-da-	0r	.	0r	.	0r	.	0r	0r
8C/	.	.	8e/	.	8g/	.	.	.	.	.	.	.	.	.	.	.
8C/	.	.	8e/	.	8g/	.	8G\	-te	.	.	.	.	.	.	.	.
8C/J	.	.	8e/J	.	8g/J	.	8e\	lau-	.	.	.	.	.	.	.	.
=6	=6	=6	=6	=6	=6	=6	=6	=6	=6	=6	=6	=6	=6	=6	=6	=6
!	!	!	!	!	!	!	!LO:LB:g=original	!	!	!	!	!	!	!	!	!
8C/L	.	.	8e/L	.	8g/L	.	4c\	-da-	.	.	.	.	.	.	.	.
8C/	.	.	8e/	.	8g/	.	.	.	.	.	.	.	.	.	.	.
8C/	.	.	8e/	.	8g/	.	8G\	-te	.	.	.	.	.	.	.	.
*	*	*	*	*	*	*	*	*ij	*	*	*	*	*	*	*	*
8C/J	.	.	8e/J	.	8g/J	.	8G\	lau-	.	.	.	.	.	.	.	.
*Xtremolo	*	*	*	*	*Xtremolo	*	*	*	*	*	*	*	*	*	*	*
=7	=7	=7	=7	=7	=7	=7	=7	=7	=7	=7	=7	=7	=7	=7	=7	=7
8F\L	x 6	.	8d/L	.	8a/L	.	8A\	-da-	.	.	.	.	.	.	.	.
8F\	x _	.	8d/	.	8a/	.	16A\LL	-te	.	.	.	.	.	.	.	.
*	*	*	*	*	*	*	*	*Xij	*	*	*	*	*	*	*	*
.	x x	.	.	.	.	.	16d\JJ	.	.	.	.	.	.	.	.	.
8G\	.	.	8d/	.	8b/	.	16c\LL	no-	.	.	.	.	.	.	.	.
.	.	.	.	.	.	.	16B\JJ	.	.	.	.	.	.	.	.	.
8G\J	.	.	8d/J	.	8b/J	.	16A\LL	-men	.	.	.	.	.	.	.	.
.	.	.	.	.	.	.	16B\JJ	.	.	.	.	.	.	.	.	.
=8	=8	=8	=8	=8	=8	=8	=8	=8	=8	=8	=8	=8	=8	=8	=8	=8
!	!	!	!	!	!LO:MO:mod=*null:null	!	!	!	!	!	!	!	!	!	!	!
*	*	*	*	*	*2\right	*	*	*	*	*	*	*	*	*	*	*
*tremolo	*	*	*	*	*tremolo	*	*	*	*	*	*	*	*	*	*	*
8C/L	.	.	8e/L	.	8cc\L	.	8.c\	Do-	.	.	.	.	.	.	.	.
8C/	.	.	8e/	.	8cc\	.	.	.	.	.	.	.	.	.	.	.
.	.	.	.	.	.	.	16c\	-mi-	.	.	.	.	.	.	.	.
8C/	.	.	8e/	.	8cc\	.	8C/	-ni	.	.	.	.	.	.	.	.
8C/J	.	.	8e/J	.	8cc\J	.	8c\	lau-	.	.	.	.	.	.	.	.
=9	=9	=9	=9	=9	=9	=9	=9	=9	=9	=9	=9	=9	=9	=9	=9	=9
8GG/L	.	.	8d/L	.	8b\L	.	8.B\L	-da-	0r	.	0r	.	0r	.	0r	0r
8GG/	.	.	8d/	.	8b\	.	.	.	.	.	.	.	.	.	.	.
.	.	.	.	.	.	.	16d\Jk	.	.	.	.	.	.	.	.	.
8GG/	.	.	8d/	.	8b\	.	8G\	.	.	.	.	.	.	.	.	.
8GG/J	.	.	8d/J	.	8b\J	.	16A\LL	-te	.	.	.	.	.	.	.	.
.	.	.	.	.	.	.	16B\JJ	.	.	.	.	.	.	.	.	.
=10	=10	=10	=10	=10	=10	=10	=10	=10	=10	=10	=10	=10	=10	=10	=10	=10
8C/L	.	.	8e/L	.	8cc\L	.	8c\	pu-	.	.	.	.	.	.	.	.
8C/	.	.	8e/	.	8cc\	.	16e\LL	-e-	.	.	.	.	.	.	.	.
.	.	.	.	.	.	.	16d\JJ	.	.	.	.	.	.	.	.	.
8C/	.	.	8e/	.	8cc\	.	8c\	-ri	.	.	.	.	.	.	.	.
8C/J	.	.	8e/J	.	8cc\J	.	8c\	lau-	.	.	.	.	.	.	.	.
*Xtremolo	*	*	*	*	*	*	*	*	*	*	*	*	*	*	*	*
=11	=11	=11	=11	=11	=11	=11	=11	=11	=11	=11	=11	=11	=11	=11	=11	=11
!	!	!	!	!	!	!	!LO:LB:g=original	!	!	!	!	!	!	!	!	!
8GG/L	.	.	8d/L	.	8b\L	.	8.B\L	-da-	.	.	.	.	.	.	.	.
8GG/	.	.	8d/	.	8b\	.	.	.	.	.	.	.	.	.	.	.
.	.	.	.	.	.	.	16d\Jk	.	.	.	.	.	.	.	.	.
8GG/	.	.	8d/	.	8b\	.	8G\L	.	.	.	.	.	.	.	.	.
8GG/J	.	.	8d/J	.	8b\J	.	16A\L	.	.	.	.	.	.	.	.	.
.	.	.	.	.	.	.	16B\JJ	.	.	.	.	.	.	.	.	.
*	*	*	*Xtremolo	*	*Xtremolo	*	*	*	*	*	*	*	*	*	*	*
=12	=12	=12	=12	=12	=12	=12	=12	=12	=12	=12	=12	=12	=12	=12	=12	=12
!	!	!	!LO:LB:g=original	!	!LO:LB:g=original	!	!	!	!	!	!	!	!	!	!	!
4C/	.	.	4e/	.	4cc\	.	8c\	-te	.	.	.	.	.	.	.	.
.	.	.	.	.	.	.	16e\LL	no-	.	.	.	.	.	.	.	.
.	.	.	.	.	.	.	16d\JJ	.	.	.	.	.	.	.	.	.
8r	.	.	8r	.	8r	.	16c\LL	.	.	.	.	.	.	.	.	.
.	.	.	.	.	.	.	16B\	.	.	.	.	.	.	.	.	.
8E\	x 6	.	8g/	.	8cc\	.	16A\	.	.	.	.	.	.	.	.	.
.	.	.	.	.	.	.	16G\JJ	.	.	.	.	.	.	.	.	.
=13	=13	=13	=13	=13	=13	=13	=13	=13	=13	=13	=13	=13	=13	=13	=13	=13
!LO:LB:g=original	!	!	!	!	!	!	!	!	!	!	!	!	!	!	!	!
4F\	.	.	4a/	.	4cc\	.	8A\L	.	1r	.	1r	.	1r	.	1r	1r
.	.	.	.	.	.	.	16c\L	.	.	.	.	.	.	.	.	.
.	.	.	.	.	.	.	16B\JJ	.	.	.	.	.	.	.	.	.
8r	.	.	8r	.	8r	.	16A\LL	.	.	.	.	.	.	.	.	.
.	.	.	.	.	.	.	16G\	.	.	.	.	.	.	.	.	.
8C/	.	.	8g/	.	8ee\	.	16F\	.	.	.	.	.	.	.	.	.
.	.	.	.	.	.	.	16E\JJ	.	.	.	.	.	.	.	.	.
=14	=14	=14	=14	=14	=14	=14	=14	=14	=14	=14	=14	=14	=14	=14	=14	=14
!LO:TX:t=P:problem=mixed beam	!	!	!	!	!	!	!	!	!	!	!	!	!	!	!	!
8F\L	x 6	.	8a/L	.	16dd\LL	.	16F\LL	.	.	.	.	.	.	.	.	.
.	.	.	.	.	16ff\	.	16D\JJ	.	.	.	.	.	.	.	.	.
8F\	.	.	8f/	.	16ee\	.	16E\LL	-men	.	.	.	.	.	.	.	.
.	.	.	.	.	16dd\JJ	.	16F\JJ	.	.	.	.	.	.	.	.	.
8G\	x 4	.	8e/	.	8cc\L	.	8G\	Do-	.	.	.	.	.	.	.	.
8GG/J	x 3	.	8d/J	.	8b\J	.	8GG/	-mi-	.	.	.	.	.	.	.	.
=15	=15	=15	=15	=15	=15	=15	=15	=15	=15	=15	=15	=15	=15	=15	=15	=15
!	!	!	!	!LO:DY:a:t=for:mod= 	!	!	!	!LO:MO:mod=-ni.	!	!	!	!	!	!	!	!
4C/	.	.	8e/L	f	8cc\L	.	4C/	-ni	2r	.	2r	.	2r	.	2r	2r
!	!	!	!	!LO:MO:null:mod=f	!	!LO:MO:null:mod=f	!	!	!	!	!	!	!	!	!	!
.	.	.	16c/L	.	16cc\L	.	.	.	.	.	.	.	.	.	.	.
.	.	.	16B/JJ	.	16b\JJ	.	.	.	.	.	.	.	.	.	.	.
!	!	!	!	!	!	!LO:DY:a:t=for:mod= 	!	!	!	!	!	!	!	!	!	!
4r	.	.	16c/LL	.	16cc\LL	f	4r	.	.	.	.	.	.	.	.	.
.	.	.	16d/	.	16dd\	.	.	.	.	.	.	.	.	.	.	.
.	.	.	16e/	.	16ee\	.	.	.	.	.	.	.	.	.	.	.
.	.	.	16d/JJ	.	16dd\JJ	.	.	.	.	.	.	.	.	.	.	.
=16	=16	=16	=16	=16	=16	=16	=16	=16	=16	=16	=16	=16	=16	=16	=16	=16
!!LO:TX:a:t= :mod=Tutti
!	!	!LO:MO:mod=!LO&colon;DY&colon;ed=brack	!	!	!	!	!	!	!	!	!	!	!	!	!	!
!	!	!null	!	!	!	!	!	!	!	!	!	!	!	!	!	!
!LO:TX:a:t=Tutti:mod=	!	!LO:MO:null:mod=f	!	!	!	!	!	!	!	!	!	!	!	!	!	!
[2C/	.	.	8c/L	.	8cc\L	.	4c\	Sit	4c\	Sit	4cc\	Sit	4cc\	Sit	8c/L	8cc\L
.	.	.	8c/J	.	8cc\J	.	.	.	.	.	.	.	.	.	8c/	8cc\
.	.	.	16c/LL	.	16cc\LL	.	16c\LL	no-	16c\LL	no-	16cc\LL	no-	16cc\LL	no-	8c/J	8cc\J
.	.	.	16B/	.	16b\	.	16B\JJ	.	16B\JJ	.	16b\JJ	.	16b\JJ	.	.	.
.	.	.	16A/	.	16a\	.	16A\LL	-men	16A\LL	-men	16a\LL	-men	16a\LL	-men	8r	8r
.	.	.	16G/JJ	.	16g\JJ	.	16G\JJ	.	16G\JJ	.	16g\JJ	.	16g\JJ	.	.	.
=17	=17	=17	=17	=17	=17	=17	=17	=17	=17	=17	=17	=17	=17	=17	=17	=17
!	!	!	!	!	!	!	!LO:LB:g=original	!	!	!	!	!	!	!	!	!
2C/_	.	.	8c/L	.	8cc\L	.	4.c\	Do-	4.c\	Do-	4.cc\	Do-	4.cc\	Do-	8c/L	8cc\L
.	.	.	8c/J	.	8cc\J	.	.	.	.	.	.	.	.	.	8c/	8cc\
.	.	.	8c/L	.	8cc\L	.	.	.	.	.	.	.	.	.	8c/J	8cc\J
.	.	.	16d/L	.	16cc\L	.	16d\LL	-mi-	16d\LL	-mi-	16dd\LL	-mi-	16dd\LL	-mi-	8r	8r
.	.	.	16e/JJ	.	16ee\JJ	.	16e\JJ	.	16e\JJ	.	16ee\JJ	.	16ee\JJ	.	.	.
=18	=18	=18	=18	=18	=18	=18	=18	=18	=18	=18	=18	=18	=18	=18	=18	=18
2C/_	.	.	8c/L	.	8cc\L	.	4c\	-ni	4c\	-ni	4cc\	-ni	4cc\	-ni	8c/L	8cc\L
.	.	.	8c/J	.	8cc\J	.	.	.	.	.	.	.	.	.	8c/	8cc\
.	.	.	16c/LL	.	16cc\LL	.	16c\LL	be-	16c\LL	be-	16cc\LL	be-	16cc\LL	be-	8c/J	8cc\J
.	.	.	16B/	.	16b\	.	16B\JJ	.	16B\JJ	.	16b\JJ	.	16b\JJ	.	.	.
.	.	.	16A/	.	16a\	.	16A\LL	-ne-	16A\LL	-ne-	16a\LL	-ne-	16a\LL	-ne-	8r	8r
.	.	.	16G/JJ	.	16g\JJ	.	16G\JJ	.	16G\JJ	.	16g\JJ	.	16g\JJ	.	.	.
=19	=19	=19	=19	=19	=19	=19	=19	=19	=19	=19	=19	=19	=19	=19	=19	=19
!	!	!	!	!	!LO:LB:g=original	!	!	!	!	!	!	!	!LO:LB:g=original	!	!	!
2C/_	.	.	8c/L	.	8cc\L	.	4c\	-di-	8c\L	-di-	8cc\L	-dic-	8cc\L	-dic-	8c/L	8cc\L
.	.	.	16d/L	.	16dd\L	.	.	.	16d\L	.	16dd\L	.	16dd\L	.	8c/	8cc\
.	.	.	16e/JJ	.	16ee\JJ	.	.	.	16e\JJ	.	16ee\JJ	.	16ee\JJ	.	.	.
.	.	.	8c/L	.	8cc\L	.	4C/	ctum	4c\	-ctum	4cc\	-tum	4cc\	-tum	8c/J	8cc\J
.	.	.	8G/J	.	8g\J	.	.	.	.	.	.	.	.	.	8r	8r
=20	=20	=20	=20	=20	=20	=20	=20	=20	=20	=20	=20	=20	=20	=20	=20	=20
!	!	!	!	!	!	!	!	!	!	!	!	!	!	!	!	!LO:MO:mod=*null:null
*	*	*	*	*	*	*	*	*	*	*	*	*	*	*	*	*2\right
!	!	!	!LO:LB:g=original	!	!	!	!	!	!	!	!LO:LB:g=original	!	!	!	!LO:LB:g=original	!LO:LB:g=original
2C/_	.	.	16c/LL	.	16cc\LL	.	4c\	ex	4G/	ex	4e\	ex	4cc\	ex	2e/	2cc\
.	.	.	16G/	.	16g\	.	.	.	.	.	.	.	.	.	.	.
.	.	.	16c/	.	16cc\	.	.	.	.	.	.	.	.	.	.	.
.	.	.	16d/JJ	.	16dd\JJ	.	.	.	.	.	.	.	.	.	.	.
.	.	.	16e/LL	.	16ee\LL	.	4c\	hoc	4G/	hoc	4e\	hoc	4cc\	hoc	.	.
.	.	.	16f/	.	16ff\	.	.	.	.	.	.	.	.	.	.	.
.	.	.	16g/	.	16gg\	.	.	.	.	.	.	.	.	.	.	.
.	.	.	16e/JJ	.	16ee\JJ	.	.	.	.	.	.	.	.	.	.	.
=21	=21	=21	=21	=21	=21	=21	=21	=21	=21	=21	=21	=21	=21	=21	=21	=21
!	!	!	!	!	!	!	!	!	!LO:LB:g=original	!	!	!	!	!	!	!
2C/_	.	.	8c/L	.	8cc\L	.	4c\	nunc	4G/	nunc	4e\	nunc	4cc\	nunc	2e/	2cc\
.	.	.	16c/L	.	16cc\L	.	.	.	.	.	.	.	.	.	.	.
.	.	.	16e/JJ	.	16ee\JJ	.	.	.	.	.	.	.	.	.	.	.
.	.	.	16c/LL	.	16cc\LL	.	4c\	et	4G/	et	4e\	et	4cc\	et	.	.
.	.	.	16B/	.	16b\	.	.	.	.	.	.	.	.	.	.	.
.	.	.	16A/	.	16a\	.	.	.	.	.	.	.	.	.	.	.
.	.	.	16G/JJ	.	16g\JJ	.	.	.	.	.	.	.	.	.	.	.
=22	=22	=22	=22	=22	=22	=22	=22	=22	=22	=22	=22	=22	=22	=22	=22	=22
2C/_	.	.	16c/LL	.	16cc\LL	.	4c\	us-	4G/	us-	4e\	us-	4cc\	us-	2e/	2cc\
.	.	.	16G/	.	16g\	.	.	.	.	.	.	.	.	.	.	.
.	.	.	16c/	.	16cc\	.	.	.	.	.	.	.	.	.	.	.
.	.	.	16d/JJ	.	16dd\JJ	.	.	.	.	.	.	.	.	.	.	.
.	.	.	16e/LL	.	16ee\LL	.	8c\	-que	8G/	-que	8e\	-que	8cc\	-que	.	.
.	.	.	16f/	.	16ff\	.	.	.	.	.	.	.	.	.	.	.
.	.	.	16g/	.	16gg\	.	8c\	in	8G/	in	8e\	in	8cc\	in	.	.
.	.	.	16e/JJ	.	16ee\JJ	.	.	.	.	.	.	.	.	.	.	.
=23	=23	=23	=23	=23	=23	=23	=23	=23	=23	=23	=23	=23	=23	=23	=23	=23
!	!	!	!	!	!	!	!	!LO:MO:mod=sae-	!	!LO:MO:mod=sae-	!	!LO:MO:mod=sae-	!	!LO:MO:mod=sae-	!	!
2C/]	.	.	8c/L	.	8cc\L	.	8c\	Sae-	8G/	Sae-	8e\	Sae-	8cc\	Sae-	2e/	2cc\
.	.	.	16c/L	.	16cc\L	.	8c\	-cu-	8G/	-cu-	8e\	-cu-	8cc\	-cu-	.	.
.	.	.	16e/JJ	.	16ee\JJ	.	.	.	.	.	.	.	.	.	.	.
.	.	.	16c/LL	.	16cc\LL	.	4c\	-lum	4G/	-lum	4e\	-lum	4cc\	-lum	.	.
.	.	.	16G/	.	16g\	.	.	.	.	.	.	.	.	.	.	.
.	.	.	16A/	.	16a\	.	.	.	.	.	.	.	.	.	.	.
.	.	.	16B/JJ	.	16b\JJ	.	.	.	.	.	.	.	.	.	.	.
=24	=24	=24	=24	=24	=24	=24	=24	=24	=24	=24	=24	=24	=24	=24	=24	=24
!LO:TX:t=P:problem=mixed beam	!	!	!	!	!	!	!	!	!	!	!	!	!	!	!	!
8C/L	.	.	8c/L	.	8cc\L	.	4c\	a	4c\	a	4g\	a	4ee\	a	2e/	2cc\
8c\	.	.	8g/	.	16cc\L	.	.	.	.	.	.	.	.	.	.	.
.	.	.	.	.	16ee\JJ	.	.	.	.	.	.	.	.	.	.	.
8c\	.	.	8g/	.	16gg\LL	.	8c\	so-	8c\	so-	8g\	ſo-	8ee\	so-	.	.
.	.	.	.	.	16ff\	.	.	.	.	.	.	.	.	.	.	.
8c\J	.	.	8g/J	.	16gg\	.	8c\	-lis	8c\	-lis	8g\	-lis	8ee\	-lis	.	.
.	.	.	.	.	16ee\JJ	.	.	.	.	.	.	.	.	.	.	.
=25	=25	=25	=25	=25	=25	=25	=25	=25	=25	=25	=25	=25	=25	=25	=25	=25
!LO:MO:mod=*null:null	!	!	!	!	!	!	!	!	!	!	!	!	!	!	!	!
*2\right	*	*	*	*	*	*	*	*	*	*	*	*	*	*	*	*
*tremolo	*	*	*tremolo	*	*	*	*	*	*	*	*	*	*	*	*	*
!	!	!	!	!	!LO:PB:g=original	!	!LO:LB:g=original	!	!	!	!	!	!LO:LB:g=original	!	!	!
8B\L	x 6	.	8g/L	.	8dd\L	.	8B\	or-	8d\	or-	8g\	or-	8dd\	or-	2g/	2dd\
8B\	.	.	8g/	.	16ee\L	.	8B\	-tu	8d\	-tu	8g\	-tu	8dd\	-tu	.	.
.	.	.	.	.	16ff#X\JJ	.	.	.	.	.	.	.	.	.	.	.
8B\	.	.	8g/	.	16gg\LL	.	8B\	us-	8d\	us-	8g\	us-	8dd\	us-	.	.
.	.	.	.	.	16ff#\	.	.	.	.	.	.	.	.	.	.	.
8B\J	.	.	8g/J	.	16gg\	.	8B\	-que	8d\	-que	8g\	-que	8dd\	-que	.	.
.	.	.	.	.	16dd\JJ	.	.	.	.	.	.	.	.	.	.	.
=26	=26	=26	=26	=26	=26	=26	=26	=26	=26	=26	=26	=26	=26	=26	=26	=26
!	!	!	!LO:MO:mod=*null:null	!	!	!	!	!	!	!	!	!	!	!	!LO:MO:mod=*null:null	!
*	*	*	*2\right	*	*	*	*	*	*	*	*	*	*	*	*2\right	*
8A\L	6\ 3	.	8cc\L	.	16dd\LL	.	4A\	ad	4d\	ad	4f#X\	ad	4cc\	ad	2dd\	2dd\
.	.	.	.	.	16cc\	.	.	.	.	.	.	.	.	.	.	.
8A\	.	.	8cc\	.	16ff#X\	.	.	.	.	.	.	.	.	.	.	.
.	.	.	.	.	16ff#\JJ	.	.	.	.	.	.	.	.	.	.	.
!	!	!	!	!	!	!	!	!	!	!	!LO:LB:g=original	!	!	!	!	!
!	!	!	!	!	!	!	!	!	!	!	!LO:SIC:s=4f#	!	!	!	!	!
8A\	.	.	8cc\	.	16ff#\LL	.	4A\	oc-	4d\	oc-	4f#X\	oc-	4cc\	oc-	.	.
.	.	.	.	.	16gg\	.	.	.	.	.	.	.	.	.	.	.
8A\J	.	.	8cc\J	.	16aa\	.	.	.	.	.	.	.	.	.	.	.
.	.	.	.	.	16ff#\JJ	.	.	.	.	.	.	.	.	.	.	.
*	*	*	*Xtremolo	*	*	*	*	*	*	*	*	*	*	*	*	*
=27	=27	=27	=27	=27	=27	=27	=27	=27	=27	=27	=27	=27	=27	=27	=27	=27
!LO:LB:g=original	!	!	!LO:TX:t=P:problem=mixed beam	!	!	!	!	!	!LO:LB:g=original	!	!	!	!	!	!	!
8G\L	.	.	8b\L	.	16gg\LL	.	4G\	-ca-	4d\	-ca-	4g\	-ca-	4b\	-ca-	2g/	2dd\
.	.	.	.	.	16aa\	.	.	.	.	.	.	.	.	.	.	.
8G\	.	.	8b\	.	16bb\	.	.	.	.	.	.	.	.	.	.	.
.	.	.	.	.	16gg\JJ	.	.	.	.	.	.	.	.	.	.	.
8G\	.	.	8b\	.	8dd\L	.	8G\	-ſum	8d\	-ſum	8g\	-ſum	8b\	-sum	.	.
8G\J	.	.	8B/J	.	8dd\J	.	8G\	lau-	8d\	lau-	8g\	lau-	8b\	lau-	.	.
=28	=28	=28	=28	=28	=28	=28	=28	=28	=28	=28	=28	=28	=28	=28	=28	=28
*	*	*	*tremolo	*	*	*	*	*	*	*	*	*	*	*	*	*
!	!	!	!LO:LB:g=original	!	!	!	!	!	!	!	!	!	!	!	!	!
8F#X\L	6 5	.	8A/L 8d	.	8cc\L	.	4F#X\	-da-	4d\	-da-	4a\	-da-	4cc\	-da-	2dd\	2dd\
8F#\	.	.	8A/ 8d	.	16cc\L	.	.	.	.	.	.	.	.	.	.	.
.	.	.	.	.	16a\JJ	.	.	.	.	.	.	.	.	.	.	.
8F#\	.	.	8A/ 8d	.	16b\LL	.	4F#\	-bi-	4d\	-bi-	4a\	-bi-	4cc\	-bi-	.	.
.	.	.	.	.	16cc\	.	.	.	.	.	.	.	.	.	.	.
8F#\J	.	.	8A/J 8d	.	16dd\	.	.	.	.	.	.	.	.	.	.	.
.	.	.	.	.	16cc\JJ	.	.	.	.	.	.	.	.	.	.	.
=29	=29	=29	=29	=29	=29	=29	=29	=29	=29	=29	=29	=29	=29	=29	=29	=29
8G\L	.	.	8B/L 8d	.	16b\LL	.	4G\	-le	4d\	-le	4g\	-le	4b\	-le	2g/	2dd\
.	.	.	.	.	16g\	.	.	.	.	.	.	.	.	.	.	.
8G\	.	.	8B/ 8d	.	16b\	.	.	.	.	.	.	.	.	.	.	.
.	.	.	.	.	16cc\JJ	.	.	.	.	.	.	.	.	.	.	.
*	*	*	*	*	*	*	*	*	*	*ij	*	*ij	*	*	*	*
8G\	.	.	8B/ 8d	.	8dd\L	.	4G\	lau-	4d\	lau-	4g\	lau-	4b\	lau-	.	.
8G\J	.	.	8B/J 8d	.	8dd\J	.	.	.	.	.	.	.	.	.	.	.
=30	=30	=30	=30	=30	=30	=30	=30	=30	=30	=30	=30	=30	=30	=30	=30	=30
8F#X\L	6 5	.	8A/L 8d	.	8cc\L	.	4F#X\	-da-	4d\	-da-	4a\	-da-	4cc\	-da-	2dd\	2dd\
8F#\	.	.	8A/ 8d	.	16cc\L	.	.	.	.	.	.	.	.	.	.	.
.	.	.	.	.	16a\JJ	.	.	.	.	.	.	.	.	.	.	.
8F#\	.	.	8A/ 8d	.	16b\LL	.	4F#\	-bi-	4d\	-bi-	4a\	-bi-	4cc\	-bi-	.	.
.	.	.	.	.	16cc\	.	.	.	.	.	.	.	.	.	.	.
8F#\J	.	.	8A/J 8d	.	16dd\	.	.	.	.	.	.	.	.	.	.	.
.	.	.	.	.	16cc\JJ	.	.	.	.	.	.	.	.	.	.	.
=31	=31	=31	=31	=31	=31	=31	=31	=31	=31	=31	=31	=31	=31	=31	=31	=31
!	!	!	!	!	!LO:LB:g=original	!	!	!	!	!	!	!	!LO:LB:g=original	!	!	!
8G\L	.	.	8B/L 8d	.	16b\LL	.	4G\	-le	4d\	-le	4g\	-le	4b\	-le	2g/	2dd\
*	*	*	*	*	*	*	*	*	*	*Xij	*	*Xij	*	*	*	*
.	.	.	.	.	16g\	.	.	.	.	.	.	.	.	.	.	.
8G\	.	.	8B/ 8d	.	16b\	.	.	.	.	.	.	.	.	.	.	.
.	.	.	.	.	16cc\JJ	.	.	.	.	.	.	.	.	.	.	.
8G\	.	.	8B/ 8d	.	8dd\L	.	8G\	no-	8d\	no-	8g\	no-	8b\	no-	.	.
8G\J	.	.	8B/J 8d	.	16dd\L	.	8G\	-men	8d\	-men	8g\	-men	8b\	-men	.	.
.	.	.	.	.	16b\JJ	.	.	.	.	.	.	.	.	.	.	.
*Xtremolo	*	*	*Xtremolo	*	*	*	*	*	*	*	*	*	*	*	*	*
=32	=32	=32	=32	=32	=32	=32	=32	=32	=32	=32	=32	=32	=32	=32	=32	=32
!LO:TX:t=P:problem=mixed beam	!	!	!	!	!	!	!	!	!	!	!	!	!	!	!	!
8c\L	x 6	.	8e/L	.	8cc\L	.	4c\	Do-	4e\	Do-	4a\	Do-	4cc\	Do-	4cc\	4ee\
8c\	.	.	8a/	.	16ee\L	.	.	.	.	.	.	.	.	.	.	.
.	.	.	.	.	16cc\JJ	.	.	.	.	.	.	.	.	.	.	.
8d\	x 4	.	8g/	.	16cc\LL	.	8d\	.	4d\	-mi-	8g\	.	8b\	.	4dd\	4dd\
.	.	.	.	.	16b\	.	.	.	.	.	.	.	.	.	.	.
8D/J	x 3	.	8f#X/J	.	16b\	.	8D\	-mi-	.	.	8f#X\	-mi-	8a\	-mi-	.	.
.	.	.	.	.	16a\JJ	.	.	.	.	.	.	.	.	.	.	.
=33	=33	=33	=33	=33	=33	=33	=33	=33	=33	=33	=33	=33	=33	=33	=33	=33
!	!	!	!LO:SIC:s=[2B [2d	!	!	!	!LO:LB:g=original	!LO:MO:mod=-ni.	!	!LO:MO:mod=-ni.	!	!LO:MO:mod=-ni.	!	!LO:MO:mod=-ni.	!	!
[<2G\	.	.	2B/ 2d	.	8b\L	.	4G\	-ni	4d\	-ni	4g\	-ni	4b\	-ni	2g/	2dd\
.	.	.	.	.	16b\L	.	.	.	.	.	.	.	.	.	.	.
.	.	.	.	.	16cc\JJ	.	.	.	.	.	.	.	.	.	.	.
.	.	.	.	.	16dd\LL	.	4r	.	4r	.	4r	.	4r	.	.	.
.	.	.	.	.	16b\	.	.	.	.	.	.	.	.	.	.	.
.	.	.	.	.	16dd\	.	.	.	.	.	.	.	.	.	.	.
.	.	.	.	.	16ee\JJ	.	.	.	.	.	.	.	.	.	.	.
=34	=34	=34	=34	=34	=34	=34	=34	=34	=34	=34	=34	=34	=34	=34	=34	=34
!	!	!	!LO:SIC:s=2B_ 2d_	!	!	!	!	!	!	!	!LO:LB:g=original	!	!	!	!	!
2G\_<	.	.	2B/ 2d	.	8dd\L	.	0r	.	0r	.	0r	.	1r	.	2g/	2dd\
.	.	.	.	.	16dd\L	.	.	.	.	.	.	.	.	.	.	.
.	.	.	.	.	16cc\JJ	.	.	.	.	.	.	.	.	.	.	.
.	.	.	.	.	16b/LL	.	.	.	.	.	.	.	.	.	.	.
.	.	.	.	.	16a/	.	.	.	.	.	.	.	.	.	.	.
.	.	.	.	.	16b/	.	.	.	.	.	.	.	.	.	.	.
!	!	!	!	!	!LO:SIC:v:s=16f#/JJ	!	!	!	!	!	!	!	!	!	!	!
.	.	.	.	.	16g#X/JJ	.	.	.	.	.	.	.	.	.	.	.
=35	=35	=35	=35	=35	=35	=35	=35	=35	=35	=35	=35	=35	=35	=35	=35	=35
!	!	!	!LO:SIC:s=2B_ 2d_	!	!	!	!	!	!	!	!	!	!	!	!	!LO:LB:g=original
2G\_<	.	.	2B/ 2d	.	8g/L	.	.	.	.	.	.	.	.	.	2g/	2dd\
.	.	.	.	.	16b/L	.	.	.	.	.	.	.	.	.	.	.
.	.	.	.	.	16cc/JJ	.	.	.	.	.	.	.	.	.	.	.
.	.	.	.	.	16dd\LL	.	.	.	.	.	.	.	.	.	.	.
.	.	.	.	.	16b\	.	.	.	.	.	.	.	.	.	.	.
.	.	.	.	.	16dd\	.	.	.	.	.	.	.	.	.	.	.
.	.	.	.	.	16ee\JJ	.	.	.	.	.	.	.	.	.	.	.
=36	=36	=36	=36	=36	=36	=36	=36	=36	=36	=36	=36	=36	=36	=36	=36	=36
!	!	!	!LO:SIC:s=2B] 2d]	!	!	!	!	!	!	!	!	!	!	!	!	!
2G\]	.	.	2B/ 2d	.	8dd\L	.	.	.	.	.	.	.	2r	.	2g/	2dd\
.	.	.	.	.	16dd\L	.	.	.	.	.	.	.	.	.	.	.
.	.	.	.	.	16cc\JJ	.	.	.	.	.	.	.	.	.	.	.
.	.	.	.	.	4b\	.	.	.	.	.	.	.	.	.	.	.
=37	=37	=37	=37	=37	=37	=37	=37	=37	=37	=37	=37	=37	=37	=37	=37	=37
!	!	!	!	!LO:MO:mod=!LO&colon;DY&colon;ed=brack	!	!	!	!	!	!	!	!	!	!	!	!
!	!	!	!	!null	!	!	!	!	!	!	!	!	!LO:MO:mod=!LO&colon;TX&colon;a&colon;i&colon;t=Solo	!	!	!
!LO:TX:a:t=Solo:rj:mod=	!	!LO:DY:a:t=p.:mod=%s	!	!LO:MO:null:mod=p	!	!LO:DY:a:t=p.:mod=%s	!	!	!	!	!	!	!LO:TX:a:t=Solo	!	!	!
8G\L	.	p	8B/L 8d	.	8dd\L	p	.	.	.	.	.	.	8dd\L	Ex-	0r	0r
8G\	.	.	8B/ 8d	.	16dd\L	.	.	.	.	.	.	.	16dd\L	.	.	.
.	.	.	.	.	16b\JJ	.	.	.	.	.	.	.	16b\JJ	.	.	.
!	!	!	!	!	!LO:LB:g=original	!	!	!	!	!	!	!	!	!	!	!
8F#X\	6 5	.	8A/ 8d	.	16a\LL	.	.	.	.	.	.	.	16a\LL	-cel-	.	.
.	.	.	.	.	16b\	.	.	.	.	.	.	.	16b\JJ	.	.	.
8F#\J	.	.	8A/J 8d	.	16cc\	.	.	.	.	.	.	.	16cc\LL	-sus	.	.
.	.	.	.	.	16dd\JJ	.	.	.	.	.	.	.	16dd\JJ	.	.	.
=38	=38	=38	=38	=38	=38	=38	=38	=38	=38	=38	=38	=38	=38	=38	=38	=38
*tremolo	*	*	*tremolo	*	*	*	*	*	*	*	*	*	*	*	*	*
8G\L	.	.	8B/L 8d	.	8b/L	.	0r	.	0r	.	0r	.	8b\	su-	.	.
8G\	.	.	8B/ 8d	.	16b/L	.	.	.	.	.	.	.	16b\LL	-per	.	.
.	.	.	.	.	16a/JJ	.	.	.	.	.	.	.	16a\JJ	.	.	.
!	!	!	!	!	!	!	!	!	!	!	!	!	!LO:LB:g=original	!	!	!
8G\	.	.	8B/ 8d	.	8g/L	.	.	.	.	.	.	.	8g\	o-	.	.
8G\J	.	.	8B/J 8d	.	16b/L	.	.	.	.	.	.	.	16b\LL	-mnes	.	.
.	.	.	.	.	16cc/JJ	.	.	.	.	.	.	.	16cc\JJ	.	.	.
=39	=39	=39	=39	=39	=39	=39	=39	=39	=39	=39	=39	=39	=39	=39	=39	=39
*Xtremolo	*	*	*Xtremolo	*	*	*	*	*	*	*	*	*	*	*ij	*	*
8G\L	.	.	8B/L 8d	.	8dd\L	.	.	.	.	.	.	.	8dd\	o-	.	.
8G\	.	.	8B/ 8d	.	16dd\L	.	.	.	.	.	.	.	16dd\LL	-mnes	.	.
*	*	*	*	*	*	*	*	*	*	*	*	*	*	*Xij	*	*
.	.	.	.	.	16b\JJ	.	.	.	.	.	.	.	16b\JJ	.	.	.
8F#X\	6 5	.	8A/ 8d	.	16a\LL	.	.	.	.	.	.	.	16a\LL	gen-	.	.
.	.	.	.	.	16b\	.	.	.	.	.	.	.	16b\JJ	.	.	.
8F#\J	.	.	8A/J 8d	.	16cc\	.	.	.	.	.	.	.	16cc\LL	-tes	.	.
.	.	.	.	.	16dd\JJ	.	.	.	.	.	.	.	16dd\JJ	.	.	.
=40	=40	=40	=40	=40	=40	=40	=40	=40	=40	=40	=40	=40	=40	=40	=40	=40
*	*	*	*tremolo	*	*	*	*	*	*	*	*	*	*	*	*	*
!LO:LB:g=original	!	!	!	!	!	!	!	!	!	!	!	!	!	!	!	!
8G\L	.	.	8B/L 8d	.	8b\L	.	.	.	.	.	.	.	8b\	Do-	.	.
8G\	.	.	8B/ 8d	.	16b\L	.	.	.	.	.	.	.	16b\LL	-mi-	.	.
.	.	.	.	.	16a\JJ	.	.	.	.	.	.	.	16a\JJ	.	.	.
8G\	.	.	8B/ 8d	.	8b\L	.	.	.	.	.	.	.	8b\	-nus	.	.
8G\J	.	.	8B/J 8d	.	16cc\L	.	.	.	.	.	.	.	16cc\LL	et	.	.
.	.	.	.	.	16dd\JJ	.	.	.	.	.	.	.	16dd\JJ	.	.	.
*	*	*	*Xtremolo	*	*	*	*	*	*	*	*	*	*	*	*	*
=41	=41	=41	=41	=41	=41	=41	=41	=41	=41	=41	=41	=41	=41	=41	=41	=41
8G\L	6 4	.	8c/L 8e	.	16ee\LL	.	.	.	.	.	.	.	16ee\LL	ſu-	0r	0r
!	!	!	!	!	!LO:SIC:s=16ff#	!	!	!	!	!	!	!	!	!	!	!
.	.	.	.	.	16ff\	.	.	.	.	.	.	.	16ff#X\JJ	.	.	.
8G\	.	.	8c/ 8e	.	16gg\	.	.	.	.	.	.	.	16gg\LL	-per	.	.
.	.	.	.	.	16ee\JJ	.	.	.	.	.	.	.	16ee\JJ	.	.	.
!	!	!	!	!	!	!	!	!	!	!	!	!	!	!LO:MO:mod=cae-	!	!
8G\	9 3	.	8B/ 8d	.	8dd\L	.	.	.	.	.	.	.	8dd\	coe-	.	.
8G\J	.	.	8B/J 8d	.	16dd\L	.	.	.	.	.	.	.	16dd\LL	-los	.	.
.	.	.	.	.	16b\JJ	.	.	.	.	.	.	.	16b\JJ	.	.	.
=42	=42	=42	=42	=42	=42	=42	=42	=42	=42	=42	=42	=42	=42	=42	=42	=42
!	!	!	!LO:LB:g=original	!	!	!	!	!	!	!	!	!	!LO:PB:g=original	!LO:MO:mod=glo-	!	!
8F#X\L	6 5	.	8A/L 8d	.	8a\L	.	0r	.	0r	.	1r	.	8a\	Glo-	.	.
8F#\	.	.	8A/ 8d	.	16a\L	.	.	.	.	.	.	.	16a\LL	-ri-	.	.
.	.	.	.	.	16cc\JJ	.	.	.	.	.	.	.	16cc\JJ	.	.	.
8G\	.	.	8B/ 8d	.	8b\L	.	.	.	.	.	.	.	8b\	-a	.	.
*	*	*	*	*	*	*	*	*	*	*	*	*	*	*ij	*	*
!	!	!	!	!	!	!	!	!	!	!	!	!	!	!LO:MO:mod=glo-	!	!
8G\J	.	.	8B/J 8d	.	16b\L	.	.	.	.	.	.	.	16b\LL	Glo-	.	.
.	.	.	.	.	16dd\JJ	.	.	.	.	.	.	.	16dd\JJ	.	.	.
=43	=43	=43	=43	=43	=43	=43	=43	=43	=43	=43	=43	=43	=43	=43	=43	=43
!LO:TX:t=P:problem=mixed beam	!	!	!	!	!	!	!	!	!	!	!	!	!	!	!	!
8c\L	x 6	.	8e/L	.	8cc\L	.	.	.	.	.	.	.	16cc\LL	-ri-	.	.
.	.	.	.	.	.	.	.	.	.	.	.	.	16ee\JJ	.	.	.
8c\	.	.	8a/	.	16ee\L	.	.	.	.	.	.	.	16dd\LL	-a	.	.
*	*	*	*	*	*	*	*	*	*	*	*	*	*	*Xij	*	*
.	.	.	.	.	16cc\JJ	.	.	.	.	.	.	.	16cc\JJ	.	.	.
8d\	x 4	.	8g/	.	16cc\LL	.	.	.	.	.	.	.	16cc\LL	e-	.	.
.	.	.	.	.	16b\	.	.	.	.	.	.	.	16b\	.	.	.
8D/J	x #	.	8f#X/J	.	16b\	.	.	.	.	.	.	.	16b\	.	.	.
.	.	.	.	.	16a\JJ	.	.	.	.	.	.	.	16a\JJ	.	.	.
=44	=44	=44	=44	=44	=44	=44	=44	=44	=44	=44	=44	=44	=44	=44	=44	=44
!LO:TX:t=P:problem=mixed beam	!	!	!	!	!LO:LB:g=original	!	!	!	!	!	!	!	!	!LO:MO:mod=-jus	!	!
8G\L	.	.	8g/	.	8b\	.	.	.	.	.	4r	.	8b\	-ius	.	.
8GG/	.	.	8r	.	8r	.	.	.	.	.	.	.	8r	.	.	.
!	!	!	!	!	!	!	!	!	!	!	!LO:TX:a:t=Solo:rj:mod=	!LO:MO:mod=sus-	!	!LO:MO:mod=sus-	!	!
8G\	.	.	16g/LL	.	16b\LL	.	.	.	.	.	16g\LL	Sus-	16b\LL	Sus-	.	.
.	.	.	16f#X/	.	16a\	.	.	.	.	.	16f#X\JJ	.	16a\JJ	.	.	.
8G\J	.	.	16g/	.	16b\	.	.	.	.	.	16g\LL	-ci-	16b\LL	-ci-	.	.
.	.	.	16b/JJ	.	16dd\JJ	.	.	.	.	.	16b\JJ	.	16dd\JJ	.	.	.
=45	=45	=45	=45	=45	=45	=45	=45	=45	=45	=45	=45	=45	=45	=45	=45	=45
8F#X\L	6 5	.	8a/L	.	8cc\L	.	.	.	.	.	8a\	-tans	8cc\	-tans	0r	0r
8D\	.	.	16a/L	.	16cc\L	.	.	.	.	.	16a\LL	a	16cc\LL	a	.	.
.	.	.	16f#X/JJ	.	16a\JJ	.	.	.	.	.	16f#X\JJ	.	16a\JJ	.	.	.
8G\	.	.	16g/LL	.	16b\LL	.	.	.	.	.	16g\LL	ter-	16b\LL	ter-	.	.
!	!	!	!	!	!	!	!	!	!	!	!LO:SIC:s=16f#JJ	!	!	!	!	!
.	.	.	16f#/	.	16a\	.	.	.	.	.	16f#X\JJ	.	16a\JJ	.	.	.
!	!	!	!	!	!	!	!	!	!	!	!	!	!LO:LB:g=original	!	!	!
8G\J	.	.	16g/	.	16b\	.	.	.	.	.	16g\LL	-ra	16b\LL	-ra	.	.
.	.	.	16b/JJ	.	16dd\JJ	.	.	.	.	.	16b\JJ	.	16dd\JJ	.	.	.
=46	=46	=46	=46	=46	=46	=46	=46	=46	=46	=46	=46	=46	=46	=46	=46	=46
8F#X\L	6 5	.	8a/L	.	8cc\L	.	0r	.	0r	.	8a\	in-	8cc\	in-	.	.
8D\	.	.	16a/L	.	16cc\L	.	.	.	.	.	16a\LL	-o-	16cc\LL	-o-	.	.
.	.	.	16f#X/JJ	.	16a\JJ	.	.	.	.	.	16f#X\JJ	.	16a\JJ	.	.	.
8G\	.	.	8g/L	.	8b\L	.	.	.	.	.	8g\	-pem	8b\	-pem	.	.
8G\J	.	.	8b/J	.	8dd\J	.	.	.	.	.	8b\	a	8dd\	a	.	.
=47	=47	=47	=47	=47	=47	=47	=47	=47	=47	=47	=47	=47	=47	=47	=47	=47
8c\L	x 6	.	8a/L	.	8cc\L	.	.	.	.	.	8a\L	ter-	8cc\L	ter-	.	.
8c\	x _	.	16cc/L	.	16ee\L	.	.	.	.	.	16cc\L	.	16ee\L	.	.	.
.	x x	.	16b/JJ	.	16dd\JJ	.	.	.	.	.	16b\JJ	.	16dd\JJ	.	.	.
8c\	.	.	8a/L	.	8cc\L	.	.	.	.	.	8a\	.	8cc\	.	.	.
8c#X\J	x 5	.	8g/J	.	8b\J	.	.	.	.	.	8g\	-ra	8b\	-ra	.	.
=48	=48	=48	=48	=48	=48	=48	=48	=48	=48	=48	=48	=48	=48	=48	=48	=48
!	!	!	!	!	!	!	!	!	!	!	!LO:LB:g=original	!	!	!	!	!
8d\L	x 4	.	8g/L	.	8b\L	.	.	.	.	.	16g\	in-	16b\	in-	.	.
.	.	.	.	.	.	.	.	.	.	.	16g\	-o-	16b\	-o-	.	.
8D\J	x #	.	8f#X/J	.	8a\J	.	.	.	.	.	8f#X\	-pem	8a\	-pem	.	.
8r	.	.	16f#/LL	.	16a\LL	.	.	.	.	.	16f#\LL	et	16a\LL	et	.	.
.	.	.	16g/	.	16b\	.	.	.	.	.	16g\JJ	.	16b\JJ	.	.	.
8D\	x #	.	16a/	.	16cc\	.	.	.	.	.	16a\LL	de	16cc\LL	de	.	.
.	.	.	16f#/JJ	.	16a\JJ	.	.	.	.	.	16f#\JJ	.	16a\JJ	.	.	.
=49	=49	=49	=49	=49	=49	=49	=49	=49	=49	=49	=49	=49	=49	=49	=49	=49
!LO:LB:g=original	!	!	!	!	!	!	!	!	!	!	!	!	!	!	!	!
8G\L	.	.	8g/L	.	8b\L	.	.	.	.	.	8g\	ster-	8b\	ster-	1r	1r
8G\	.	.	16g/L	.	16b\L	.	.	.	.	.	16g\LL	-co-	16b\LL	-co-	.	.
.	.	.	16a/JJ	.	16cc\JJ	.	.	.	.	.	16a\JJ	.	16cc\JJ	.	.	.
8G\	.	.	16b/LL	.	16dd\LL	.	.	.	.	.	16b\LL	-re	16dd\LL	-re	.	.
.	.	.	16g/	.	16b\	.	.	.	.	.	16g\JJ	.	16b\JJ	.	.	.
!	!	!	!	!	!	!	!	!	!	!	!	!	!LO:LB:g=original	!	!	!
8G\J	.	.	16cc/	.	16ee\	.	.	.	.	.	16cc\LL	e-	16ee\LL	e-	.	.
.	.	.	16b/JJ	.	16dd\JJ	.	.	.	.	.	16b\JJ	.	16dd\JJ	.	.	.
=50	=50	=50	=50	=50	=50	=50	=50	=50	=50	=50	=50	=50	=50	=50	=50	=50
!	!	!	!LO:LB:g=original	!	!	!	!	!	!	!	!	!	!	!	!	!
8c\L	x 6	.	16a/LL	.	16cc\LL	.	1r	.	1r	.	16a\LL	-ri-	16cc\LL	-ri-	.	.
.	.	.	16cc/	.	16ee\	.	.	.	.	.	16cc\JJ	.	16ee\JJ	.	.	.
8c\	.	.	16b/	.	16dd\	.	.	.	.	.	16b\LL	-gens	16dd\LL	-gens	.	.
.	.	.	16a/JJ	.	16cc\JJ	.	.	.	.	.	16a\JJ	.	16cc\JJ	.	.	.
!	!	!	!	!	!LO:LB:g=original	!	!	!	!	!	!	!	!	!	!	!
8d\	x 4	.	16a/LL	.	16cc\LL	.	.	.	.	.	16a\LL	pau-	16cc\LL	pau-	.	.
.	.	.	16g/	.	16b\	.	.	.	.	.	16g\JJ	.	16b\JJ	.	.	.
8D\J	x #	.	16g/	.	16b\	.	.	.	.	.	16g\LL	-pe-	16b\LL	-pe-	.	.
.	.	.	16f#X/JJ	.	16a\JJ	.	.	.	.	.	16f#X\JJ	.	16a\JJ	.	.	.
=51	=51	=51	=51	=51	=51	=51	=51	=51	=51	=51	=51	=51	=51	=51	=51	=51
!	!	!	!	!LO:MO:null:mod=f	!	!LO:DY:a:t=for.:mod=%s	!	!	!	!	!	!	!	!	!	!
4G\	.	.	8g/L	.	8b\L	f	.	.	.	.	4g\	-rem	4b\	-rem	2r	2r
.	.	.	32g/LL	.	32gg\LL	.	.	.	.	.	.	.	.	.	.	.
.	.	.	32f#X/	.	32ff#X\	.	.	.	.	.	.	.	.	.	.	.
.	.	.	32g/	.	32gg\	.	.	.	.	.	.	.	.	.	.	.
.	.	.	32a/JJJ	.	32aa\JJJ	.	.	.	.	.	.	.	.	.	.	.
!	!	!	!	!LO:DY:a:t=for:mod= 	!	!	!	!	!	!	!	!	!	!	!	!
4r	.	.	16g/LL	f	16gg\LL	.	.	.	.	.	4r	.	4r	.	.	.
.	.	.	16d/	.	16dd\	.	.	.	.	.	.	.	.	.	.	.
.	.	.	16e/	.	16ee\	.	.	.	.	.	.	.	.	.	.	.
.	.	.	16f#/JJ	.	16ff#\JJ	.	.	.	.	.	.	.	.	.	.	.
=52	=52	=52	=52	=52	=52	=52	=52	=52	=52	=52	=52	=52	=52	=52	=52	=52
!!LO:TX:a:t= :mod=Tutti
!	!	!LO:MO:mod=!LO&colon;DY&colon;ed=brack	!	!	!	!	!	!	!	!	!	!	!	!	!	!
!	!	!null	!	!	!	!	!	!	!	!	!	!	!	!	!	!
!LO:TX:a:t=Tutti:rj:mod=	!	!LO:MO:null:mod=f	!	!	!	!	!	!	!	!	!	!	!	!	!LO:LB:g=original	!LO:SIC:s=2dd
8G\L	.	.	8g/L	.	8gg\L	.	8G\	ut	8G/	ut	8d\	ut	8b\	ut	2g/	2ee\
!	!	!	!	!	!	!	!	!LO:MO:mod=col-	!	!	!	!LO:MO:mod=col-	!	!LO:MO:mod=col-	!	!
8G\	x _	.	16B/L	.	16b\L	.	8G\	Col-	8G/	col-	8d\	Col-	8b\	Col-	.	.
.	.	.	16d/JJ	.	16dd\JJ	.	.	.	.	.	.	.	.	.	.	.
!LO:SIC:s=8F	!	!	!	!	!	!	!	!	!LO:LB:g=original	!	!LO:LB:g=original	!	!	!	!	!
8Fn\	.	.	16B/LL	.	16b/LL	.	8F\	-le-	8G/	-lo-	8d\	-lo-	8b\	-lo-	.	.
.	.	.	16G/	.	16g/	.	.	.	.	.	.	.	.	.	.	.
8F\J	x x	.	16A/	.	16a/	.	8F\	-cet	8G/	-cet	8d\	-cet	8b\	-cet	.	.
.	.	.	16B/JJ	.	16b/JJ	.	.	.	.	.	.	.	.	.	.	.
=53	=53	=53	=53	=53	=53	=53	=53	=53	=53	=53	=53	=53	=53	=53	=53	=53
!	!	!	!	!	!	!	!	!	!	!	!LO:SIC:s=4c	!	!	!	!	!
8E\L	x 6	.	16c/LL	.	16cc\LL	.	4E\	e-	4G/	e-	4d\	e-	4cc\	e-	2cc\	2ee\
.	.	.	16B/	.	16b\	.	.	.	.	.	.	.	.	.	.	.
8E\	.	.	16c/	.	16cc\	.	.	.	.	.	.	.	.	.	.	.
.	.	.	16d/JJ	.	16dd\JJ	.	.	.	.	.	.	.	.	.	.	.
!	!	!	!	!	!	!	!	!	!	!	!LO:SIC:s=4e	!	!	!	!	!
8C\	.	.	16e/LL	.	16ee\LL	.	4C/	-um	4G/	-um	4d\	-um	4cc\	-um	.	.
.	.	.	16c/	.	16cc\	.	.	.	.	.	.	.	.	.	.	.
8C\J	.	.	16e/	.	16ee\	.	.	.	.	.	.	.	.	.	.	.
.	.	.	16g/JJ	.	16gg\JJ	.	.	.	.	.	.	.	.	.	.	.
=54	=54	=54	=54	=54	=54	=54	=54	=54	=54	=54	=54	=54	=54	=54	=54	=54
!	!	!	!	!	!	!	!	!LO:MO:mod=cum	!	!LO:MO:mod=cum	!	!	!	!	!	!
8BB/L	6 5	.	16g/LL	.	16gg\LL	.	4BB/	Cum	4G/	cu(m)	4f\	cum	4dd\	cum	4dd\	4ff\
.	.	.	16f/	.	16ff\	.	.	.	.	.	.	.	.	.	.	.
8BB/	.	.	16d/	.	16dd\	.	.	.	.	.	.	.	.	.	.	.
.	.	.	16f/JJ	.	16ff\JJ	.	.	.	.	.	.	.	.	.	.	.
8C/	.	.	16f/LL	.	16ff\LL	.	8C\L	prin-	4G/	prin-	4e\	prin-	4cc\	prin-	4cc\	4ee\
.	.	.	16e/	.	16ee\	.	.	.	.	.	.	.	.	.	.	.
8E/J	.	.	16d/	.	16dd\	.	8E\J	.	.	.	.	.	.	.	.	.
.	.	.	16c/JJ	.	16cc\JJ	.	.	.	.	.	.	.	.	.	.	.
=55	=55	=55	=55	=55	=55	=55	=55	=55	=55	=55	=55	=55	=55	=55	=55	=55
!LO:TX:t=P:problem=mixed beam	!	!	!	!	!	!	!	!	!	!	!	!	!LO:LB:g=original	!	!	!
8G\L	.	.	16B/LL	.	16b\LL	.	8.G\	-ci-	8G/	-ci-	8d\	-ci-	8cc\	-ci-	4g/	4dd\
.	.	.	16c/	.	16cc\	.	.	.	.	.	.	.	.	.	.	.
8G\	.	.	16d/	.	16dd\	.	.	.	8G/	-pi-	8d\	-pi-	8cc\	-pi-	.	.
.	.	.	16B/JJ	.	16b\JJ	.	16G\	-pi-	.	.	.	.	.	.	.	.
8GG/	.	.	8G/L	.	8g/L	.	8G\	-bus	8G/	-bus	8d\	-bus	8b\	-bus	4g/	4dd\
*	*	*	*	*	*	*	*	*ij	*	*	*	*	*	*	*	*
!	!	!	!	!	!	!	!	!	!	!	!	!LO:MO:mod=cum	!	!LO:MO:mod=cum	!	!
8GG/J	.	.	16A/L	.	16a/L	.	8G\	cum	8G/	cum	8d\	Cum	8b\	Cum	.	.
.	.	.	16B/JJ	.	16b/JJ	.	.	.	.	.	.	.	.	.	.	.
=56	=56	=56	=56	=56	=56	=56	=56	=56	=56	=56	=56	=56	=56	=56	=56	=56
!	!	!	!LO:LB:g=original	!	!LO:LB:g=original	!	!	!	!	!	!	!	!	!	!	!
8C/L	.	.	16c/LL	.	16cc\LL	.	8c\	prin-	8G/	prin-	8e\	prin-	8cc\	prin-	2cc\	2ee\
.	.	.	16B/	.	16b\	.	.	.	.	.	.	.	.	.	.	.
8C/	.	.	16c/	.	16cc\	.	8c\	-ci-	8G/	-ci-	8e\	-ci-	8cc\	-ci-	.	.
.	.	.	16d/JJ	.	16dd\JJ	.	.	.	.	.	.	.	.	.	.	.
8C/	.	.	16e/LL	.	16ee\LL	.	8c\	-pi-	8G/	-pi-	8e\	-pi-	8cc\	-pi-	.	.
.	.	.	16f/	.	16ff\	.	.	.	.	.	.	.	.	.	.	.
8C/J	.	.	16g/	.	16gg\	.	8c\	-bus	8G/	-bus	8e\	-bus	8cc\	-bus	.	.
*	*	*	*	*	*	*	*	*Xij	*	*	*	*	*	*	*	*
.	.	.	16e/JJ	.	16ee\JJ	.	.	.	.	.	.	.	.	.	.	.
=57	=57	=57	=57	=57	=57	=57	=57	=57	=57	=57	=57	=57	=57	=57	=57	=57
!	!	!	!	!	!	!	!LO:LB:g=original	!	!	!	!	!	!	!	!	!
8BB/L	6 5	.	8f/L	.	8ff\L	.	4B\	po-	4G/	po-	4f\	po-	4dd\	po-	4dd\	4ff\
8BB/	.	.	16f/L	.	16ff\L	.	.	.	.	.	.	.	.	.	.	.
.	.	.	16d/JJ	.	16dd\JJ	.	.	.	.	.	.	.	.	.	.	.
8C/	.	.	8e/L	.	16ee\LL	.	8c\	-pu-	8G/	-pu-	8e\	-pu-	8cc\	-pu-	4cc\	4ee\
.	.	.	.	.	16gg\	.	.	.	.	.	.	.	.	.	.	.
8E/J	.	.	8g/J	.	16ee\	.	8E\	-li	8G/	-li	8e\	-li	8cc\	-li	.	.
.	.	.	.	.	16cc\JJ	.	.	.	.	.	.	.	.	.	.	.
=58	=58	=58	=58	=58	=58	=58	=58	=58	=58	=58	=58	=58	=58	=58	=58	=58
!LO:LB:g=original	!	!	!	!	!	!	!	!	!	!	!	!	!	!	!	!
!LO:TX:t=P:problem=mixed beam	!	!	!	!	!	!	!	!	!	!	!LO:PB:g=original	!	!	!	!	!
8F\L	x 6	.	8.a/L	.	8dd\L	.	4F\	ſu-	4A/	ſu-	4f\	ſu-	4dd\	ſu-	4dd\	4ff\
8F/	.	.	.	.	16ff\L	.	.	.	.	.	.	.	.	.	.	.
.	.	.	16f/Jk	.	16dd\JJ	.	.	.	.	.	.	.	.	.	.	.
!	!	!	!	!	!	!	!LO:TX:t=P:problem=mixed beam	!LO:MO:mod=.	!	!	!	!	!	!	!	!
8G\	x 4	.	16f/LL	.	16dd\LL	.	8G\L	-i	4G/	.	8e\L	.	8cc\L	.	8cc\L	8ee\L
.	.	.	16e/	.	16cc\	.	.	.	.	.	.	.	.	.	.	.
8GG/J	x 3	.	16e/	.	16cc\	.	8GG/J	.	.	.	8d\J	.	8b\J	.	8g\J	8dd\J
.	.	.	16d/JJ	.	16b\JJ	.	.	.	.	.	.	.	.	.	.	.
=59	=59	=59	=59	=59	=59	=59	=59	=59	=59	=59	=59	=59	=59	=59	=59	=59
!LO:TX:t=P:problem=mixed beam	!	!	!	!	!	!	!	!LO:MO:null:mod=-i	!LO:LB:g=original	!	!	!	!	!	!	!
8C/L	.	.	8e/L	.	8cc\L	.	8C/	.	8G/	-i	8e\	-i	8cc\	-i	4e/	4cc\
!	!	!	!	!	!	!	!	!	!	!LO:MO:null:mod=qui	!	!LO:MO:null:mod=qui	!	!LO:MO:null:mod=qui	!	!
(16c\L	.	.	16c/L	.	16cc\L	.	16c\LL	qui	16c\LL	quis	16cc\LL	quis	16cc\LL	quis	.	.
16B\JJ)	.	.	16B/JJ	.	16b\JJ	.	16B\JJ	.	16B\JJ	.	16b\JJ	.	16b\JJ	.	.	.
8c\L|	.	.	8c/L	.	8cc\L	.	8c\	ha-	8c\	ha-	8cc\	ha-	8cc\	ha-	4r	4r
8e\J|	.	.	8e/J	.	8ee\J	.	8e\	-bi-	8e\	-bi-	8ee\	-bi-	8ee\	-bi-	.	.
=60	=60	=60	=60	=60	=60	=60	=60	=60	=60	=60	=60	=60	=60	=60	=60	=60
!	!	!	!	!	!	!	!	!	!	!	!	!	!LO:LB:g=original	!	!	!
8d\L|	.	.	8d/L	.	8dd\L	.	8d\	-ta-	8d\	-ta-	8dd\	-ta-	8dd\	-ta-	0r	0r
8B\J|	.	.	8B/J	.	8b\J	.	8B\	-re	8B\	-re	8b\	-re	8b\	-re	.	.
8G\L|	.	.	8G/L	.	8g\L	.	8G\L	fa-	8G\L	fa-	8g\L	fa-	8g\L	fa-	.	.
(16A\L	.	.	16A/L	.	16a\L	.	16A\L	.	16A\L	.	16a\L	.	16a\L	.	.	.
16B\JJ)	.	.	16B/JJ	.	16b\JJ	.	16B\JJ	.	16B\JJ	.	16b\JJ	.	16b\JJ	.	.	.
=61	=61	=61	=61	=61	=61	=61	=61	=61	=61	=61	=61	=61	=61	=61	=61	=61
8c\L|	.	.	8c/L	.	8cc\L	.	8c\	-cit	8c\	-cit	8cc\	-cit	8cc\	-cit	.	.
!	!	!	!	!	!	!	!LO:SIC:s=16cLL	!	!	!	!	!	!LO:SIC:s=16ccLL	!	!	!
(16c\L	.	.	16c/L	.	16cc\L	.	(16c\LL	ste-	16c\LL	ste-	16cc\LL	ste-	(16cc\LL	ste-	.	.
!	!	!	!	!	!	!	!LO:SIC:s=16BJJ	!	!	!	!	!	!	!	!	!
16B\JJ)	.	.	16B/JJ	.	16b\JJ	.	16B\JJ)	.	16B\JJ	.	16b\JJ	.	16b\JJ	.	.	.
!	!	!	!	!	!	!	!	!LO:MO:mod=.	!	!	!	!	!LO:SIC:s=8cc	!	!	!
8c\L|	.	.	8c/L	.	8cc\L	.	8c\	-ri-	8c\	.	8cc\	.	8cc\)	.	.	.
!	!	!	!	!	!	!	!	!LO:MO:mod=-ri-	!	!	!	!	!	!	!	!
8e\J|	.	.	8e/J	.	8ee\J	.	8e\	-lem	8e\	-ril-	8ee\	-ri-	8ee\	-ril-	.	.
=62	=62	=62	=62	=62	=62	=62	=62	=62	=62	=62	=62	=62	=62	=62	=62	=62
!	!	!	!	!	!	!	!LO:SIC:s=8d	!LO:MO:mod=-lem	!	!	!	!	!	!	!	!
8d\L|	.	.	8d/L	.	8dd\L	.	8d'\	in	8d\	-lem	8dd\	-lem	8dd\	-lem	.	.
!	!	!	!	!	!	!	!	!LO:MO:null:mod=in	!	!	!	!	!	!	!	!
8B\J|	.	.	8B/J	.	8b\J	.	8B\	.	8B\	in	8b\	in	8b\	in	.	.
!	!	!	!	!	!	!	!	!LO:MO:mod=do-	!	!LO:MO:mod=do-	!LO:LB:g=original	!	!	!	!	!
8G\L|	.	.	8G/L	.	8g\L	.	8G\L	Do-	8G\L	Do-	8g\L	do-	8g\L	do-	.	.
(16A\L	.	.	16A/L	.	16a\L	.	16A\L	.	16A\L	.	16a\L	.	16a\L	.	.	.
16B\JJ)	.	.	16B/JJ	.	16b\JJ	.	16B\JJ	.	16B\JJ	.	16b\JJ	.	16b\JJ	.	.	.
=63	=63	=63	=63	=63	=63	=63	=63	=63	=63	=63	=63	=63	=63	=63	=63	=63
!	!	!	!	!	!LO:LB:g=original	!	!LO:LB:g=original	!	!	!	!	!	!	!	!	!
8c\L|	.	.	8c/L	.	8cc\L	.	8c\	-mo	8c\	-mo	8cc\	-mo	8cc\	-mo	.	.
!	!	!	!	!	!	!	!	!	!	!	!	!LO:MO:mod=mat-	!	!	!	!
(16d\L	.	.	16d/L	.	16dd\L	.	16d\LL	mat-	16d\LL	mat-	16dd\LL	Ma-	16dd\LL	mat-	.	.
16e\JJ)	.	.	16e/JJ	.	16ee\JJ	.	16e\JJ	.	16e\JJ	.	16ee\JJ	.	16ee\JJ	.	.	.
!	!	!	!	!	!	!	!	!	!	!	!	!LO:MO:mod=.	!	!LO:MO:mod=.	!	!
8c\L|	.	.	8c/L	.	8cc\L	.	8c\	.	8c\	.	8cc\	-trem	8cc\	-rem	.	.
!	!	!	!	!	!	!	!	!	!	!	!	!LO:MO:null:mod=-rem	!	!LO:MO:null:mod=-rem	!	!
8G\J|	.	.	8G/J	.	8g\J	.	8G\	-rem	8G/	-rem	8g\	.	8g\	.	.	.
=64	=64	=64	=64	=64	=64	=64	=64	=64	=64	=64	=64	=64	=64	=64	=64	=64
!	!	!	!	!	!	!	!	!	!LO:LB:g=original	!	!	!	!LO:LB:g=original	!	!	!
8c\L|	.	.	8c/L	.	8cc\L	.	8c\	fi-	8c\	fi-	8cc\	fi-	8cc\	fi-	1r	1r
(16d\L	.	.	16d/L	.	16dd\L	.	16d\LL	-li-	16d\LL	-li-	16dd\LL	-li-	16dd\LL	-li-	.	.
16e\JJ)	.	.	16e/JJ	.	16ee\JJ	.	16e\JJ	.	16e\JJ	.	16ee\JJ	.	16ee\JJ	.	.	.
8c\L|	.	.	8c/L	.	8cc\L	.	8c\L	-o-	8c\L	-o-	8cc\L	-o-	8cc\L	-o-	.	.
8G\J|	.	.	8G/J	.	8g\J	.	8G\J	.	8G\J	.	8g\J	.	8g\J	.	.	.
=65	=65	=65	=65	=65	=65	=65	=65	=65	=65	=65	=65	=65	=65	=65	=65	=65
!LO:LB:g=original	!	!	!	!	!	!	!	!	!	!	!	!	!	!	!	!
!	!	!	!LO:LB:g=original	!	!	!	!	!	!	!	!	!	!	!	!	!
8A\L|	.	.	8A/L	.	8a\L	.	8A\	-rum	8A\	-rum	8a\	-rum	8a\	-rum	.	.
(16A\L	.	.	16A/L	.	16a\L	.	16A\LL	lae-	16A\LL	lae-	16a\LL	lae-	16a\LL	lae-	.	.
16d\JJ)	.	.	16d/JJ	.	16dd\JJ	.	16d\JJ	.	16d\JJ	.	16dd\JJ	.	16dd\JJ	.	.	.
(16c\LL	.	.	16c/LL	.	16cc\LL	.	16c\LL	-tan-	16c\LL	-tan-	16cc\LL	-tan-	16cc\LL	-tan-	.	.
16B\)	.	.	16B/	.	16b\	.	16B\	.	16B\	.	16b\	.	16b\	.	.	.
(16A\	.	.	16A/	.	16a\	.	16A\	.	16A\	.	16a\	.	16a\	.	.	.
16G\JJ)	.	.	16G/JJ	.	16g\JJ	.	16G\JJ	.	16G\JJ	.	16g\JJ	.	16g\JJ	.	.	.
=66	=66	=66	=66	=66	=66	=66	=66	=66	=66	=66	=66	=66	=66	=66	=66	=66
!	!	!	!	!	!	!	!	!LO:MO:mod=-tem.	!	!LO:MO:mod=-tem.	!	!LO:MO:mod=-tem.	!	!LO:MO:mod=-tem.	!	!
[2C/	.	.	16c/LL	.	16cc\LL	.	4c\	-tem	4c\	-tem	4cc\	-tem	4cc\	-tem	2e/	2cc\
.	.	.	16d/	.	16dd\	.	.	.	.	.	.	.	.	.	.	.
.	.	.	16e/	.	16ee\	.	.	.	.	.	.	.	.	.	.	.
.	.	.	16d/JJ	.	16dd\JJ	.	.	.	.	.	.	.	.	.	.	.
.	.	.	16c/LL	.	16cc\LL	.	4r	.	4r	.	4r	.	4r	.	.	.
.	.	.	16B/	.	16b\	.	.	.	.	.	.	.	.	.	.	.
.	.	.	16A/	.	16a\	.	.	.	.	.	.	.	.	.	.	.
.	.	.	16G/JJ	.	16g\JJ	.	.	.	.	.	.	.	.	.	.	.
=67	=67	=67	=67	=67	=67	=67	=67	=67	=67	=67	=67	=67	=67	=67	=67	=67
!	!	!	!	!	!	!	!	!	!	!	!LO:LB:g=original	!	!	!	!	!
!	!	!	!	!	!	!	!	!	!	!	!LO:TX:a:t=8:mod=	!	!	!	!	!
2C/_	.	.	8c/L	.	8cc\L	.	0r	.	0r	.	0r	.	1r	.	2e/	2cc\
.	.	.	16e/L	.	16dd\L	.	.	.	.	.	.	.	.	.	.	.
.	.	.	16g/JJ	.	16ee\JJ	.	.	.	.	.	.	.	.	.	.	.
.	.	.	8c/L	.	8cc\L	.	.	.	.	.	.	.	.	.	.	.
.	.	.	16e/L	.	16ee\L	.	.	.	.	.	.	.	.	.	.	.
.	.	.	16g/JJ	.	16gg\JJ	.	.	.	.	.	.	.	.	.	.	.
=68	=68	=68	=68	=68	=68	=68	=68	=68	=68	=68	=68	=68	=68	=68	=68	=68
!	!	!	!	!	!	!	!	!	!	!	!	!	!	!	!	!LO:LB:g=original
2C/_	.	.	16c/LL	.	16cc\LL	.	.	.	.	.	.	.	.	.	2e/	2cc\
.	.	.	16d/	.	16dd\	.	.	.	.	.	.	.	.	.	.	.
.	.	.	16e/	.	16ee\	.	.	.	.	.	.	.	.	.	.	.
.	.	.	16d/JJ	.	16dd\JJ	.	.	.	.	.	.	.	.	.	.	.
.	.	.	16c/LL	.	16cc\LL	.	.	.	.	.	.	.	.	.	.	.
.	.	.	16B/	.	16b\	.	.	.	.	.	.	.	.	.	.	.
.	.	.	16A/	.	16a\	.	.	.	.	.	.	.	.	.	.	.
.	.	.	16G/JJ	.	16g\JJ	.	.	.	.	.	.	.	.	.	.	.
=69	=69	=69	=69	=69	=69	=69	=69	=69	=69	=69	=69	=69	=69	=69	=69	=69
!	!	!	!	!	!LO:LB:g=original	!	!	!	!	!	!	!	!	!	!	!
2C/]	.	.	8c/L	.	8cc\L	.	.	.	.	.	.	.	2r	.	2e/	2cc\
.	.	.	16d/L	.	16dd\L	.	.	.	.	.	.	.	.	.	.	.
.	.	.	16e/JJ	.	16ee\JJ	.	.	.	.	.	.	.	.	.	.	.
.	.	.	4c/	.	4cc\	.	.	.	.	.	.	.	.	.	.	.
=70	=70	=70	=70	=70	=70	=70	=70	=70	=70	=70	=70	=70	=70	=70	=70	=70
*	*	*	*tremolo	*	*	*	*	*	*	*	*	*	*	*	*	*
!	!	!	!	!LO:MO:mod=!LO&colon;DY&colon;ed=brack	!	!	!	!	!	!	!	!	!	!	!	!
!	!	!	!	!null	!	!	!	!	!	!	!	!	!LO:MO:mod=!LO&colon;TX&colon;a&colon;i&colon;t=Solo	!	!	!
!LO:TX:a:t=Solo:rj:mod=	!	!LO:DY:a:t=p.:mod=%s	!	!LO:MO:null:mod=p	!	!LO:DY:a:t=p.:mod=%s	!	!	!	!	!	!	!LO:TX:a:t=Solo	!	!LO:TX:a:t=5:mod=	!
8C/L	.	p	8G/L 8e	.	4cc\	p	.	.	.	.	.	.	4cc\	Glo-	0r	0r
8C/	.	.	8G/ 8e	.	.	.	.	.	.	.	.	.	.	.	.	.
8C/	.	.	8G/ 8e	.	16ee\LL	.	.	.	.	.	.	.	16ee\LL	-ri-	.	.
.	.	.	.	.	16ff\	.	.	.	.	.	.	.	16ff\JJ	.	.	.
8C/J	.	.	8G/J 8e	.	16ee\	.	.	.	.	.	.	.	16ee\LL	-a	.	.
.	.	.	.	.	16dd\JJ	.	.	.	.	.	.	.	16dd\JJ	.	.	.
=71	=71	=71	=71	=71	=71	=71	=71	=71	=71	=71	=71	=71	=71	=71	=71	=71
*tremolo	*	*	*	*	*	*	*	*	*	*	*	*	*	*	*	*
!	!	!	!	!	!	!	!	!	!	!	!	!	!	!LO:MO:mod=Pa-	!	!
8C/L	.	.	8G/L 8e	.	8cc\L	.	0r	.	0r	.	0r	.	8.cc\L	pat-	.	.
8C/	.	.	8G/ 8e	.	16cc\L	.	.	.	.	.	.	.	.	.	.	.
.	.	.	.	.	16ee\JJ	.	.	.	.	.	.	.	16ee\Jk	.	.	.
!	!	!	!	!	!	!	!	!	!	!	!	!	!LO:LB:g=original	!LO:MO:mod=-tri	!	!
8C/	.	.	8G/ 8e	.	8g/L	.	.	.	.	.	.	.	8g\	-ri	.	.
8C/J	.	.	8G/J 8e	.	16a/L	.	.	.	.	.	.	.	16a\LL	et	.	.
.	.	.	.	.	16b/JJ	.	.	.	.	.	.	.	16b\JJ	.	.	.
*Xtremolo	*	*	*	*	*	*	*	*	*	*	*	*	*	*	*	*
=72	=72	=72	=72	=72	=72	=72	=72	=72	=72	=72	=72	=72	=72	=72	=72	=72
!	!	!	!	!	!	!	!	!	!	!	!	!	!	!LO:MO:mod=Fi-	!	!
8C/L	.	.	8G/L 8e	.	8.cc\L	.	.	.	.	.	.	.	8.cc\	fi-	.	.
8C/	.	.	8G/ 8e	.	.	.	.	.	.	.	.	.	.	.	.	.
.	.	.	.	.	16ee\Jk	.	.	.	.	.	.	.	16ee\	-li-	.	.
8C/	.	.	8G/ 8e	.	8gg\L	.	.	.	.	.	.	.	8gg\	-o	.	.
8C/J	.	.	8G/J 8e	.	16ee\L	.	.	.	.	.	.	.	16ee\LL	et	.	.
.	.	.	.	.	16cc\JJ	.	.	.	.	.	.	.	16cc\JJ	.	.	.
=73	=73	=73	=73	=73	=73	=73	=73	=73	=73	=73	=73	=73	=73	=73	=73	=73
*tremolo	*	*	*	*	*	*	*	*	*	*	*	*	*	*	*	*
8GG/L	.	.	8B/L 8d	.	16b\LL	.	.	.	.	.	.	.	16b\LL	Spi-	.	.
.	.	.	.	.	16cc\	.	.	.	.	.	.	.	16cc\JJ	.	.	.
8GG/	.	.	8B/ 8d	.	16dd\	.	.	.	.	.	.	.	16dd\LL	-ri-	.	.
.	.	.	.	.	16b\JJ	.	.	.	.	.	.	.	16b\JJ	.	.	.
8GG/	.	.	8B/ 8d	.	8g/L	.	.	.	.	.	.	.	8g\	-tu-	.	.
8GG/J	.	.	8B/J 8d	.	16a/L	.	.	.	.	.	.	.	16a\LL	-i	.	.
.	.	.	.	.	16b/JJ	.	.	.	.	.	.	.	16b\JJ	.	.	.
*Xtremolo	*	*	*Xtremolo	*	*	*	*	*	*	*	*	*	*	*	*	*
=74	=74	=74	=74	=74	=74	=74	=74	=74	=74	=74	=74	=74	=74	=74	=74	=74
!LO:TX:t=P:problem=mixed beam	!	!	!	!	!	!	!	!	!	!	!	!	!	!	!	!
8C/L	.	.	8e/L	.	8cc\L	.	.	.	.	.	.	.	8cc\L	Sanc-	2r	2r
8c\	.	.	8g/	.	16dd\L	.	.	.	.	.	.	.	16dd\L	.	.	.
.	.	.	.	.	16ee\JJ	.	.	.	.	.	.	.	16ee\JJ	.	.	.
8C/J	.	.	8e/	.	8cc\L	.	.	.	.	.	.	.	8cc\	-to	.	.
8r	.	.	8G/J	.	8g\J	.	.	.	.	.	.	.	8r	.	.	.
=75	=75	=75	=75	=75	=75	=75	=75	=75	=75	=75	=75	=75	=75	=75	=75	=75
!!LO:TX:a:t= :mod=Tutti
!	!	!LO:MO:mod=!LO&colon;DY&colon;ed=brack	!	!LO:MO:mod=!LO&colon;DY&colon;ed=brack	!	!	!	!	!	!	!	!	!	!	!	!
!	!	!null	!	!null	!	!	!	!	!	!	!	!	!	!	!	!
!LO:TX:a:t=tutti:mod=	!	!LO:MO:null:mod=f	!	!LO:MO:null:mod=f	!	!LO:DY:a:t=for.:mod=%s	!	!LO:MO:mod=si-	!	!LO:MO:mod=si-	!	!LO:MO:mod=si-	!	!LO:MO:mod=si-	!LO:LB:g=original	!
[2C/	.	.	8c/L	.	8cc\L	f	8c\	Si-	8c\	Si-	8cc\	Si-	8cc\	Si-	2c/	2cc\
.	.	.	8G/	.	8g\	.	8G\	-cut	8G/	-cut	8g\	-cut	8g\	-cut	.	.
!	!	!	!	!	!	!	!	!	!	!	!	!	!LO:LB:g=original	!	!	!
.	.	.	8A/	.	8a\	.	8A\	e-	8A\	e-	8a\	e-	8a\	e-	.	.
.	.	.	8B/J	.	8b\J	.	8B\	-rat	8B\	-rat	8b\	-rat	8b\	-rat	.	.
=76	=76	=76	=76	=76	=76	=76	=76	=76	=76	=76	=76	=76	=76	=76	=76	=76
!LO:LB:g=original	!	!	!	!	!LO:LB:g=original	!	!LO:LB:g=original	!	!	!	!	!	!	!	!	!
2C/_	.	.	8c/L	.	8cc\L	.	8c\	in	8c\	in	8cc\	in	8cc\	in	2c/	2cc\
.	.	.	16c/L	.	16cc\L	.	16c\LL	prin-	16c\LL	prin-	16cc\LL	prin-	16cc\LL	prin-	.	.
.	.	.	16B/JJ	.	16b\JJ	.	16B\JJ	.	16B\JJ	.	16b\JJ	.	16b\JJ	.	.	.
.	.	.	8c/L	.	8cc\L	.	8c\	-ci-	8c\	-ci-	8cc\	-ci-	8cc\	-ci-	.	.
.	.	.	8e/J	.	8ee\J	.	8e\	-pi-	8e\	-pi-	8ee\	-pi-	8ee\	-pi-	.	.
=77	=77	=77	=77	=77	=77	=77	=77	=77	=77	=77	=77	=77	=77	=77	=77	=77
!	!	!	!	!	!	!	!	!	!LO:PB:g=original	!	!	!	!	!	!	!
2C/_	.	.	8c/L	.	8cc\L	.	8c\	-o	8c\	-o	8cc\	-o	8cc\	-o	2c/	2cc\
.	.	.	8G/	.	8g\	.	8G\	et	8G/	et	8g\	et	8g\	et	.	.
.	.	.	8A/	.	8a\	.	8A\	nunc	8A\	nunc	8a\	nunc	8a\	nunc	.	.
.	.	.	8B/J	.	8b\J	.	8B\	et	8B\	et	8b\	et	8b\	et	.	.
=78	=78	=78	=78	=78	=78	=78	=78	=78	=78	=78	=78	=78	=78	=78	=78	=78
!	!	!	!LO:LB:g=original	!	!	!	!	!	!	!	!	!	!	!	!	!
2C/_	.	.	8c/L	.	8cc\L	.	4c\	ſem-	4c\	ſem-	4cc\	ſem-	4cc\	ſem-	2c/	2cc\
.	.	.	16c/L	.	16cc\L	.	.	.	.	.	.	.	.	.	.	.
.	.	.	16B/JJ	.	16b\JJ	.	.	.	.	.	.	.	.	.	.	.
.	.	.	8c/L	.	8cc\L	.	4c\	-per	4c\	-per	4cc\	-per	4cc\	-per	.	.
.	.	.	16e/L	.	16ee\L	.	.	.	.	.	.	.	.	.	.	.
.	.	.	16g/JJ	.	16gg\JJ	.	.	.	.	.	.	.	.	.	.	.
=79	=79	=79	=79	=79	=79	=79	=79	=79	=79	=79	=79	=79	=79	=79	=79	=79
2C/_	.	.	16c/LL	.	16cc\LL	.	4c\	et	4G/	et	4e\	et	4cc\	et	2e/	2cc\
.	.	.	16d/	.	16dd\	.	.	.	.	.	.	.	.	.	.	.
.	.	.	16e/	.	16ee\	.	.	.	.	.	.	.	.	.	.	.
.	.	.	16f/JJ	.	16ff\JJ	.	.	.	.	.	.	.	.	.	.	.
.	.	.	8g/L	.	8gg\L	.	4c\	in	4G/	in	4e\	in	4cc\	in	.	.
.	.	.	16g/L	.	16gg\L	.	.	.	.	.	.	.	.	.	.	.
!	!	!	!LO:SIC:s=16fJJ	!	!	!	!	!	!	!	!	!	!	!	!	!
.	.	.	16e/JJ	.	16ff\JJ	.	.	.	.	.	.	.	.	.	.	.
=80	=80	=80	=80	=80	=80	=80	=80	=80	=80	=80	=80	=80	=80	=80	=80	=80
!	!	!	!	!	!	!	!	!LO:MO:mod=sae-	!	!LO:MO:mod=sae-	!LO:LB:g=original	!LO:MO:mod=sae-	!	!LO:MO:mod=sae-	!	!
2C/_	.	.	16e/LL	.	16ee\LL	.	4c\	Sae-	4G/	Sae-	4e\	Sae-	4cc\	Sae-	2e/	2cc\
.	.	.	16c/	.	16cc\	.	.	.	.	.	.	.	.	.	.	.
.	.	.	16e/	.	16ee\	.	.	.	.	.	.	.	.	.	.	.
.	.	.	16f/JJ	.	16ff\JJ	.	.	.	.	.	.	.	.	.	.	.
.	.	.	8g/L	.	8gg\L	.	8c\	-cu-	8G/	-cu-	8e\	-cu-	8cc\	-cu-	.	.
.	.	.	16g/L	.	16gg\L	.	8c\	-la	8G/	-la	8e\	-la	8cc\	-la	.	.
.	.	.	16e/JJ	.	16ee\JJ	.	.	.	.	.	.	.	.	.	.	.
=81	=81	=81	=81	=81	=81	=81	=81	=81	=81	=81	=81	=81	=81	=81	=81	=81
!	!	!	!	!	!	!	!	!LO:MO:mod=sae-	!	!LO:MO:mod=sae-	!	!LO:MO:mod=sae-	!LO:LB:g=original	!LO:MO:mod=sae-	!	!
2C/_	.	.	16c/LL	.	16cc\LL	.	4c\	Sae-	4G/	Sae-	4e\	Sae-	4cc\	Sae-	2e/	2cc\
.	.	.	16B/	.	16b\	.	.	.	.	.	.	.	.	.	.	.
.	.	.	16c/	.	16cc\	.	.	.	.	.	.	.	.	.	.	.
.	.	.	16e/JJ	.	16ee\JJ	.	.	.	.	.	.	.	.	.	.	.
.	.	.	8G/L	.	8g/L	.	4c\	-cu-	4G/	-cu-	4e\	-cu-	4cc\	-cu-	.	.
.	.	.	16A/L	.	16a/L	.	.	.	.	.	.	.	.	.	.	.
.	.	.	16B/JJ	.	16b/JJ	.	.	.	.	.	.	.	.	.	.	.
=82	=82	=82	=82	=82	=82	=82	=82	=82	=82	=82	=82	=82	=82	=82	=82	=82
2C/_	.	.	16c/LL	.	16cc\LL	.	4c\	-lo-	4G/	-lo-	4e\	-lo-	4cc\	-lo-	2e/	2cc\
.	.	.	16d/	.	16dd\	.	.	.	.	.	.	.	.	.	.	.
.	.	.	16e/	.	16ee\	.	.	.	.	.	.	.	.	.	.	.
.	.	.	16f/JJ	.	16ff\JJ	.	.	.	.	.	.	.	.	.	.	.
.	.	.	8g/L	.	8gg\L	.	4c\	-rum	4G/	-rum	4e\	-rum	4cc\	-rum	.	.
.	.	.	16g/L	.	16gg\L	.	.	.	.	.	.	.	.	.	.	.
.	.	.	16f/JJ	.	16ff\JJ	.	.	.	.	.	.	.	.	.	.	.
=83	=83	=83	=83	=83	=83	=83	=83	=83	=83	=83	=83	=83	=83	=83	=83	=83
!	!	!	!	!	!	!	!LO:MO:mod=*null:null	!	!	!	!LO:MO:mod=*null:null	!	!LO:MO:mod=*null:null	!	!	!
*	*	*	*	*	*	*	*2\right	*	*	*	*2\right	*	*2\right	*	*	*
!	!	!	!	!	!LO:LB:g=original	!	!LO:LB:g=original	!	!	!	!	!	!	!	!	!
2C/_	.	.	16e/LL	.	16ee\LL	.	2c\	a-	2G/	a-	2e\	a-	2cc\	a-	2e/	2cc\
.	.	.	16c/	.	16cc\	.	.	.	.	.	.	.	.	.	.	.
.	.	.	16e/	.	16ee\	.	.	.	.	.	.	.	.	.	.	.
.	.	.	16f/JJ	.	16ff\JJ	.	.	.	.	.	.	.	.	.	.	.
.	.	.	8g/L	.	8gg\L	.	.	.	.	.	.	.	.	.	.	.
.	.	.	16g/L	.	16gg\L	.	.	.	.	.	.	.	.	.	.	.
.	.	.	16e/JJ	.	16ee\JJ	.	.	.	.	.	.	.	.	.	.	.
=84	=84	=84	=84	=84	=84	=84	=84	=84	=84	=84	=84	=84	=84	=84	=84	=84
2C/]	.	.	8c/L	.	8cc\L	.	2c\	-men	2G/	-men	2e\	-men	2cc\	-men	2e/	2cc\
.	.	.	16d/L	.	16dd\L	.	.	.	.	.	.	.	.	.	.	.
.	.	.	16e/JJ	.	16ee\JJ	.	.	.	.	.	.	.	.	.	.	.
!	!	!	!LO:MO:mod=4c	!	!	!	!	!	!	!	!	!	!	!	!	!
.	.	.	8c/	.	4cc\	.	.	.	.	.	.	.	.	.	.	.
!	!	!	!LO:MO:mod=.	!	!	!	!	!	!	!	!	!	!	!	!	!
.	.	.	8r	.	.	.	.	.	.	.	.	.	.	.	.	.
==	==	==	==	==	==	==	==	==	==	==	==	==	==	==	==	==
*-	*-	*-	*-	*-	*-	*-	*-	*-	*-	*-	*-	*-	*-	*-	*-	*-
!!!system-decoration: [(g1)][(g2)][(g3)]<s9>
!!!RDF**kern: > = above
!!!RDF**kern: < = below
!!!RDF**kern: | = vertical stroke
!!!filter-modern: shed -k -e "s/([^a-gA-Gn#X-])[<>]/$1/g" | shed -X dynam -e "s/:a/:A/LX" | shed -e "s/TX(.*):t=P:/tx$1:t=P:/LG" | shed -e "s/:rj/:RJ/L" | sic -sq | modori -m | autostem -r | tie -s | humtr -p | shed -e "s/yy//"
!!!ENC: Andrzej Gręziak
!!!END: 2021-11-23
!!!ENC: Krzysztof Stępień
!!!END: 2021-12-02
!!!ENC-modern: Andrzej Kubiczek
!!!END-modern: 2022-07-26
